X: 8
T: Pipe On The Hob, The
Z: Sean Perry
S: https://thesession.org/tunes/81#setting50920
R: jig
M: 6/8
L: 1/8
K: Ador
|:B|c3 edc|edc BAG|~A3 ~g2f|eaf ged|
~c3 edc|edc deg|age dBe|ABA A2:|
|:f|~g3 gea|age dBG|~A3 ~g2f|eaf gef|
~g3 gea|age deg|age dBG|ABA A2:|
|:B|~c3 dcd|ecA AGE|~c3 dcd|ecA A2B|
cBc dcd|ede gab|age dBG|EFG A2:|

%-------------------- TUNE SEPARATOR --------------------%

